svgs/duotone/bong.svg

<svg xmlns="http://www.w3.org/2000/svg" viewBox="0 0 512 512"><!--! Font Awesome Pro 6.3.0 by @fontawesome - https://fontawesome.com License - https://fontawesome.com/license (Commercial License) Copyright 2023 Fonticons, Inc. --><defs><style>.fa-secondary{opacity:.4}</style></defs><path class="fa-primary" d="M368 384c0 25.1-6.593 49.78-19.07 71.36C345.9 460.6 340.4 464 334.5 464H113.5c-5.809 0-11.37-3.352-14.44-8.639C86.6 433.8 80.01 409.1 80.01 384c0-22.57 5.652-44.35 15.5-64h257C362.4 339.7 368 361.4 368 384z"/><path class="fa-secondary" d="M475.3 217.4l-52.63-52.75c-6.251-6.25-16.38-6.25-22.63 0L388.6 176c-6.251 6.25-6.251 16.38 0 22.62L398 208l-39.38 39.38c-11.5-11.38-24.51-21.25-38.63-29.5l.0067-154.1h16c8.751 0 16-7.25 16-16L352 16.01C352 7.14 344.9 0 336 0L111.1 .1667c-8.751 0-15.99 7.11-15.99 15.99L96 48c0 8.875 7.125 16 16 16h16L128 217.9C70.62 251.1 32 313 32 384c0 34.75 9.25 67.25 25.5 95.38C69.13 499.4 90.38 512 113.5 512h221c23.13 0 44.38-12.62 56-32.63C406.8 451.3 416 418.8 416 384c0-36.13-10.11-69.75-27.49-98.63l43.5-43.37l9.376 9.375c6.251 6.25 16.38 6.25 22.63 0L475.3 240C481.5 233.8 481.5 223.6 475.3 217.4zM348.1 455.4C345.9 460.6 340.4 464 334.5 464H113.5c-5.809 0-11.37-3.352-14.44-8.639C86.6 433.8 80.01 409.1 80.01 384c0-51.09 27.58-98.85 72.04-124.6l23.97-13.87V64.03l96.02 .1514l-.0167 181.3l23.97 13.87C340.4 285.2 368 332.9 368 384C368 409.1 361.5 433.8 348.1 455.4z"/></svg>

<svg xmlns="http://www.w3.org/2000/svg" viewBox="0 0 512 512"><!-- Font Awesome Pro 6.0.0-alpha2 by @fontawesome - https://fontawesome.com License - https://fontawesome.com/license (Commercial License) --><defs><style>.fa-secondary{opacity:.4}</style></defs><path d="M475.312 217.375L422.68 164.625C416.429 158.375 406.302 158.375 400.051 164.625L388.675 176C382.424 182.25 382.424 192.375 388.675 198.625L398.051 208L358.671 247.375C347.169 236 334.167 226.125 320.04 217.875V63.75H336.042C344.794 63.75 352.045 56.5 352.045 47.75V16C352.045 7.125 344.919 0 336.042 0L112.011 0.25C103.26 0.25 96.009 7.375 96.009 16.25V48C96.009 56.875 103.135 64 112.011 64H128.013V217.875C70.63 251.125 32 313 32 384C32 418.75 41.251 451.25 57.504 479.375C69.13 499.375 90.383 512 113.511 512H334.542C357.67 512 378.923 499.375 390.55 479.375C406.802 451.25 416.054 418.75 416.054 384C416.054 347.875 405.927 314.25 388.55 285.375L432.056 242L441.432 251.375C447.683 257.625 457.809 257.625 464.06 251.375L475.312 240C481.563 233.75 481.563 223.625 475.312 217.375ZM348.982 455.361C345.909 460.648 340.352 464 334.542 464H113.511C107.702 464 102.145 460.648 99.072 455.361C86.599 433.777 80.007 409.102 80.007 384C80.007 332.908 107.626 285.166 152.085 259.404L176.02 245.535V64.178H272.033V245.535L295.968 259.404C340.428 285.166 368.047 332.908 368.047 384C368.047 409.102 361.454 433.777 348.982 455.361Z" class="fa-secondary"/><path d="M368.04 384C368.04 409.102 361.447 433.777 348.975 455.361C345.902 460.648 340.345 464 334.536 464H113.505C107.695 464 102.138 460.648 99.065 455.361C86.593 433.777 80 409.102 80 384C80 361.434 85.657 339.654 95.504 320H352.538C362.385 339.654 368.04 361.434 368.04 384Z" class="fa-primary"/></svg>
